ix/ship_outline.svg

<svg viewBox="0 0 24 24" fill="none" xmlns="http://www.w3.org/2000/svg" height="1em" width="1em">
  <path d="M14.3798 22.75H9.61977C5.83977 22.75 2.86977 20.37 2.04977 16.68L1.63979 14.82C1.35979 13.54 2.08977 12.16 3.29977 11.67L10.2298 8.88999C11.3698 8.43999 12.6298 8.43999 13.7698 8.88999L20.6998 11.67C21.9198 12.16 22.6498 13.54 22.3598 14.82L21.9498 16.68C21.1298 20.37 18.1598 22.75 14.3798 22.75ZM11.9998 10.05C11.5898 10.05 11.1798 10.13 10.7798 10.28L3.84978 13.06C3.31978 13.27 2.96977 13.94 3.08977 14.49L3.49978 16.35C4.16978 19.37 6.50976 21.24 9.60976 21.24H14.3698C17.4698 21.24 19.8098 19.37 20.4798 16.35L20.8898 14.49C21.0098 13.94 20.6598 13.27 20.1298 13.06L13.1998 10.28C12.8198 10.13 12.4098 10.05 11.9998 10.05Z" fill="#292D32"/>
  <path d="M12 22.75C11.59 22.75 11.25 22.41 11.25 22V10C11.25 9.59 11.59 9.25 12 9.25C12.41 9.25 12.75 9.59 12.75 10V22C12.75 22.41 12.41 22.75 12 22.75Z" fill="#292D32"/>
  <path d="M19.0002 12.55C18.9102 12.55 18.8102 12.53 18.7202 12.5L13.2102 10.29C12.4302 9.98001 11.5702 9.98001 10.7802 10.29L5.27023 12.5C5.04023 12.59 4.78025 12.56 4.57025 12.42C4.36025 12.28 4.24023 12.05 4.24023 11.8V8C4.24023 5.93 5.92023 4.25 7.99023 4.25H15.9902C18.0602 4.25 19.7402 5.93 19.7402 8V11.8C19.7402 12.05 19.6202 12.28 19.4102 12.42C19.2902 12.51 19.1502 12.55 19.0002 12.55ZM12.0002 8.54999C12.6002 8.54999 13.2002 8.66001 13.7702 8.89001L18.2502 10.69V8C18.2502 6.76 17.2402 5.75 16.0002 5.75H8.00024C6.76024 5.75 5.75024 6.76 5.75024 8V10.69L10.2303 8.89001C10.8003 8.67001 11.4002 8.54999 12.0002 8.54999Z" fill="#292D32"/>
  <path d="M14.5 5.75H9.5C9.09 5.75 8.75 5.41 8.75 5V3C8.75 2.04 9.54 1.25 10.5 1.25H13.5C14.46 1.25 15.25 2.04 15.25 3V5C15.25 5.41 14.91 5.75 14.5 5.75ZM10.25 4.25H13.75V3C13.75 2.86 13.64 2.75 13.5 2.75H10.5C10.36 2.75 10.25 2.86 10.25 3V4.25Z" fill="#292D32"/>
</svg>

<svg viewBox="0 0 24 24" fill="none" xmlns="http://www.w3.org/2000/svg" height="1em" width="1em">
  <path d="M14.38 22.75H9.62c-3.78 0-6.75-2.38-7.57-6.07l-.41-1.86c-.28-1.28.45-2.66 1.66-3.15l6.93-2.78a4.81 4.81 0 0 1 3.54 0l6.93 2.78c1.22.49 1.95 1.87 1.66 3.15l-.41 1.86c-.82 3.69-3.79 6.07-7.57 6.07ZM12 10.05c-.41 0-.82.08-1.22.23l-6.93 2.78c-.53.21-.88.88-.76 1.43l.41 1.86c.67 3.02 3.01 4.89 6.11 4.89h4.76c3.1 0 5.44-1.87 6.11-4.89l.41-1.86c.12-.55-.23-1.22-.76-1.43l-6.93-2.78c-.38-.15-.79-.23-1.2-.23Z" fill="#292D32"/>
  <path d="M12 22.75c-.41 0-.75-.34-.75-.75V10c0-.41.34-.75.75-.75s.75.34.75.75v12c0 .41-.34.75-.75.75Z" fill="#292D32"/>
  <path d="M19 12.55c-.09 0-.19-.02-.28-.05l-5.51-2.21a3.29 3.29 0 0 0-2.43 0L5.27 12.5a.76.76 0 0 1-.7-.08.738.738 0 0 1-.33-.62V8c0-2.07 1.68-3.75 3.75-3.75h8c2.07 0 3.75 1.68 3.75 3.75v3.8c0 .25-.12.48-.33.62-.12.09-.26.13-.41.13Zm-7-4c.6 0 1.2.11 1.77.34l4.48 1.8V8c0-1.24-1.01-2.25-2.25-2.25H8C6.76 5.75 5.75 6.76 5.75 8v2.69l4.48-1.8c.57-.22 1.17-.34 1.77-.34Z" fill="#292D32"/>
  <path d="M14.5 5.75h-5c-.41 0-.75-.34-.75-.75V3c0-.96.79-1.75 1.75-1.75h3c.96 0 1.75.79 1.75 1.75v2c0 .41-.34.75-.75.75Zm-4.25-1.5h3.5V3c0-.14-.11-.25-.25-.25h-3c-.14 0-.25.11-.25.25v1.25Z" fill="#292D32"/>
</svg>
